X:1
T: Lime Street
C:
R:Reel
Q: 232
K:G
M:4/4
L:1/8
|:((3DEF) |G2 G2 GB dB|A2 A2 Ac ec|Bd gf ed cB|AG FE Dc BA|
G2 G2 GB dB|A2 A2 Ac ec|Bd BG Ac AF|G2 B2 G2:|
|:d2|g2 gf gb ag|f2 d2 d2 de|=fe fg fa gf|e2 c2 c2 dc|
BG Bd g2 fg|af dB c2 dc|Bd BG Ac AF|G2 B2 G2:|
